X: 19367
T: Jack's Maggot
R: barndance
M: 4/4
K: Dmajor
|:d3 A F2 A2|BA Bc d2 e2|fg a2 Bc d2|e3f e4|
d3 A F2 A2|Bc d2 c2 ag|f2 d2 e2 c2|1 d8:|2 d6||
|:fg|a2 f4 a2|fe d2 d2 ef|gf ed c2 d2|e3fe4|
a2 f2 d2 f2|A2 d2 F2 A2|B2 cd e3d|1 d2c2 d2:|2 d2c2d4||

